X:1
T:Dinky's
S:Altan
Z:Juergen.Gier@post.rwth‑aachen.de
M:4/4
L:1/8
K:AMix
ed|~c2Bc ABcd|egfd edBa|gB~B2 gBaB|gB~B2 gfed|\
(3cdc Bc ABcd|egfd edBa|~g3d egfd|(3cdc Bc A2::fg|\
aA~A2 aAbA|aA~A2 agef|gB~B2 gBaB|gB~B2 gfeg|\
aA~A2 aAbA|aA~A2 agef|gfgd egfd|(3cdc Bc A2:|
